X:1
T:The Hawthorn Tree
M:6/8
L:1/8
K:Eb
 z4 z B| G2 E E2 E| G2 AB-A G| A2 F F2 F| A2 Bc-B A| G2 E E2 E| e2 ed-c B|\
 c2 c d2 B| c2 =AF-G _A| G2 E E2 E| G2 AB-A G| A2 F F2 F| A2 Bc-B A|\
 G2 E E2 E| e2 ed-c B| A2 F F2 F| f2 ed-c B|:|
